brandFactory_export/2.Regular/Servicio tecnico Internet_2Regular.svg

<?xml version="1.0" encoding="UTF-8"?>
<svg width="24px" height="24px" viewBox="0 0 24 24" version="1.1" xmlns="http://www.w3.org/2000/svg" xmlns:xlink="http://www.w3.org/1999/xlink">
    <title>2.Regular/Servicio tecnico Internet_2Regular</title>
    <g id="Symbols" stroke="none" stroke-width="1" fill="none" fill-rule="evenodd">
        <g id="2.Regular/Servicio-tecnico-Internet_2Regular" fill="#5CB615" fill-rule="nonzero">
            <path d="M22.9176471,18.7445378 C23.287395,18.7445378 23.589916,19.0470588 23.589916,19.4168067 C23.589916,19.7865546 23.287395,20.0890756 22.9176471,20.0890756 L0.712605042,20.0890756 C0.342857143,20.0890756 0.0403361343,19.7865546 0.0403361343,19.4168067 C0.0403361343,19.0470588 0.342857143,18.7445378 0.712605042,18.7445378 L22.9176471,18.7445378 Z M19.6806723,3.01008403 C20.9983193,3.01008403 22.010084,3.40336134 22.6857143,4.17647059 C23.3142857,4.89579832 23.6302521,5.93781513 23.6302521,7.27563025 L23.6302521,13.2016807 C23.6302521,14.5394958 23.3109244,15.5815126 22.6857143,16.3008403 C22.010084,17.0739496 20.9983193,17.4672269 19.6806723,17.4672269 L3.94957983,17.4672269 C2.63193277,17.4672269 1.62016807,17.0739496 0.944537815,16.3042017 C0.319327731,15.5815126 -2.00532924e-10,14.5394958 -2.00532924e-10,13.2016807 L-2.00532924e-10,7.27563025 C-2.00532924e-10,5.93781513 0.319327731,4.89579832 0.944537815,4.17647059 C1.62016807,3.40336134 2.62857143,3.01008403 3.94957983,3.01008403 L19.6806723,3.01008403 Z M19.6806723,4.35462185 L3.94957983,4.35798319 C3.02184874,4.35798319 2.37310924,4.58991597 1.95966387,5.06386555 C1.55294118,5.52773109 1.34453781,6.27394958 1.34453781,7.27563025 L1.34453781,13.2016807 C1.34453781,14.2033613 1.55294118,14.9495798 1.95966387,15.4168067 C2.37310924,15.8907563 3.02521008,16.1226891 3.94957983,16.1226891 L19.6806723,16.1226891 C20.605042,16.1226891 21.2571429,15.8907563 21.6705882,15.4168067 C22.0773109,14.9495798 22.2857143,14.2033613 22.2857143,13.2016807 L22.2857143,7.27563025 C22.2857143,6.27394958 22.0773109,5.52773109 21.6705882,5.0605042 C21.2571429,4.58655462 20.605042,4.35462185 19.6806723,4.35462185 Z M15.7210084,5.66218487 C16.3932773,5.66218487 17.0184874,5.88403361 17.0890756,5.90420168 C17.4117647,6.02521008 17.6168067,6.2907563 17.6302521,6.60336134 C17.6436975,6.91596639 17.4588235,7.20168067 17.1495798,7.34621849 L17.1495798,7.34621849 L16.5579832,7.62184874 L16.4705882,8.04201681 L16.8470588,8.24369748 L17.4386555,7.96806723 C17.5563025,7.91092437 17.6840336,7.88067227 17.8117647,7.88067227 C18.0537815,7.87731092 18.2823529,7.99495798 18.4235294,8.19327731 C18.5714286,8.40168067 18.5983193,8.67394958 18.5042017,8.9394958 C18.4134454,9.18487395 18.2991597,9.41680672 18.1680672,9.64201681 C17.8554622,10.1798319 17.4890756,10.5495798 17.0789916,10.7411765 C16.8168067,10.8621849 16.507563,10.9260504 16.1546218,10.9260504 C15.5361345,10.9260504 14.9546218,10.7378151 14.8134454,10.687395 L14.8134454,10.687395 L14.8,10.687395 L10.2621849,12.8016807 L10.2521008,12.8117647 C10.1613445,13.0470588 10.0537815,13.2722689 9.92605042,13.487395 C9.61008403,14.0252101 9.24369748,14.394958 8.83697479,14.5932773 C8.57478992,14.7142857 8.26218487,14.7781513 7.91260504,14.7781513 C7.24369748,14.7781513 6.61512605,14.5563025 6.54453781,14.5294118 C6.22521008,14.4117647 6.01344538,14.1428571 6.00336134,13.8302521 C5.99327731,13.5176471 6.17815126,13.2319328 6.48739496,13.087395 L6.48739496,13.087395 L7.0789916,12.8117647 L7.16638655,12.3915966 L6.78991597,12.189916 L6.19831933,12.4655462 C6.08067227,12.5226891 5.95294118,12.5529412 5.82521008,12.5529412 C5.58319328,12.5563025 5.35462185,12.4386555 5.21344538,12.2403361 C5.06554622,12.0319328 5.03865546,11.7596639 5.13277311,11.4941176 C5.22352941,11.2487395 5.33781513,11.0168067 5.46890756,10.7915966 C5.7815126,10.2537815 6.14789916,9.88403361 6.55798319,9.69243697 C6.82016807,9.57142857 7.13277311,9.50756303 7.48235294,9.50756303 C8.10084034,9.50756303 8.68235294,9.69579832 8.82352941,9.74621849 L8.82352941,9.74621849 L8.83697479,9.74621849 L13.3714286,7.63193277 L13.3815126,7.62184874 C13.4722689,7.38655462 13.5798319,7.16134454 13.707563,6.94621849 C14.0201681,6.40840336 14.3865546,6.03865546 14.7966387,5.84705882 C15.0588235,5.72605042 15.3680672,5.66218487 15.7210084,5.66218487 Z M15.7210084,6.33445378 C15.4957983,6.33445378 15.2705882,6.36806723 15.0789916,6.45546218 C14.4,6.77478992 14.0033613,7.87394958 14.0033613,7.87394958 C13.9394958,8.02521008 13.8252101,8.14957983 13.6806723,8.22689076 L13.6806723,8.22689076 L9.09579832,10.3680672 C9.00840336,10.4016807 8.91764706,10.4184874 8.82352941,10.4184874 C8.75294118,10.4184874 8.68235294,10.4084034 8.61512605,10.3848739 C8.61512605,10.3848739 8.05042017,10.1764706 7.4789916,10.1764706 C7.25378151,10.1764706 7.02857143,10.2067227 6.83697479,10.297479 C6.15798319,10.6168067 5.76134454,11.7159664 5.76134454,11.7159664 C5.72773109,11.8134454 5.75462185,11.8739496 5.82184874,11.8739496 C5.85210084,11.8739496 5.88235294,11.8638655 5.9092437,11.8504202 L5.9092437,11.8504202 L6.57142857,11.5411765 C6.63865546,11.5109244 6.71260504,11.497479 6.78655462,11.497479 C6.87058824,11.4941176 6.95798319,11.5142857 7.03529412,11.5512605 L7.03529412,11.5512605 L7.69411765,11.9042017 C7.82184874,11.9815126 7.89243697,12.1294118 7.86890756,12.2806723 L7.86890756,12.2806723 L7.71428571,13.0134454 C7.67394958,13.1680672 7.56638655,13.2991597 7.42521008,13.3764706 L7.42521008,13.3764706 L6.76302521,13.6857143 C6.63529412,13.7495798 6.63865546,13.8369748 6.77310924,13.887395 C6.77310924,13.887395 7.33781513,14.0957983 7.9092437,14.0957983 C8.13445378,14.0957983 8.35966387,14.0655462 8.5512605,13.9747899 C9.2302521,13.6554622 9.62689076,12.5563025 9.62689076,12.5563025 C9.6907563,12.405042 9.80504202,12.2806723 9.94957983,12.2033613 L9.94957983,12.2033613 L14.5344538,10.0588235 C14.6218487,10.0252101 14.712605,10.0084034 14.8067227,10.0084034 C14.8773109,10.0084034 14.9478992,10.0184874 15.0151261,10.0420168 C15.0151261,10.0420168 15.5798319,10.2504202 16.1512605,10.2504202 C16.3764706,10.2504202 16.6016807,10.2201681 16.7932773,10.1294118 C17.4722689,9.81008403 17.8689076,8.71092437 17.8689076,8.71092437 C17.902521,8.61344538 17.8756303,8.55294118 17.8084034,8.55294118 C17.7781513,8.55294118 17.7478992,8.56302521 17.7210084,8.57647059 L17.7210084,8.57647059 L17.0588235,8.88571429 C16.9915966,8.91596639 16.9176471,8.92941176 16.8436975,8.92941176 C16.7596639,8.93277311 16.6722689,8.91260504 16.594958,8.87563025 L16.594958,8.87563025 L15.9361345,8.52268908 C15.805042,8.44537815 15.7378151,8.29747899 15.7613445,8.14621849 L15.7613445,8.14621849 L15.9159664,7.41344538 C15.9563025,7.25882353 16.0638655,7.12773109 16.205042,7.05042017 L16.205042,7.05042017 L16.8672269,6.74117647 C16.994958,6.68067227 16.9915966,6.59327731 16.8571429,6.54285714 C16.8571429,6.54285714 16.292437,6.33445378 15.7210084,6.33445378 Z" id="Servicio-tecnico-Internet_2Regular"></path>
        </g>
    </g>
</svg>

<svg width="24" height="24" viewBox="0 0 24 24" xmlns="http://www.w3.org/2000/svg"><path d="M22.918 18.745c.37 0 .672.302.672.672 0 .37-.303.672-.672.672H.713a.674.674 0 01-.673-.672c0-.37.303-.672.673-.672h22.205zM19.68 3.01c1.317 0 2.33.393 3.005 1.166.628.72.944 1.762.944 3.1v5.926c0 1.337-.32 2.38-.944 3.099-.676.773-1.688 1.166-3.005 1.166H3.95c-1.318 0-2.33-.393-3.005-1.163C.319 15.582 0 14.54 0 13.202V7.276c0-1.338.32-2.38.945-3.1C1.62 3.403 2.629 3.01 3.95 3.01h15.73zm0 1.345L3.95 4.358c-.928 0-1.577.232-1.99.706-.407.464-.615 1.21-.615 2.212v5.926c0 1.001.208 1.748.615 2.215.413.474 1.065.706 1.99.706h15.73c.925 0 1.577-.232 1.99-.706.407-.467.616-1.214.616-2.215V7.276c0-1.002-.209-1.748-.615-2.215-.414-.474-1.066-.706-1.99-.706zm-3.96 1.307c.672 0 1.297.222 1.368.242.323.121.528.387.541.7.014.312-.171.598-.48.742l-.592.276-.087.42.376.202.592-.276a.856.856 0 01.373-.087.74.74 0 01.612.312c.147.209.174.48.08.746-.09.246-.205.478-.336.703-.313.538-.679.908-1.089 1.1a2.19 2.19 0 01-.924.184c-.619 0-1.2-.188-1.342-.239H14.8l-4.538 2.115-.01.01c-.09.235-.198.46-.326.675-.316.538-.682.908-1.089 1.106a2.202 2.202 0 01-.924.185 4.38 4.38 0 01-1.368-.249c-.32-.117-.532-.386-.542-.699-.01-.312.175-.598.484-.743l.592-.275.087-.42-.376-.202-.592.276a.856.856 0 01-.373.087.74.74 0 01-.612-.313c-.147-.208-.174-.48-.08-.746.09-.245.205-.477.336-.702.313-.538.679-.908 1.089-1.1.262-.12.575-.184.924-.184.619 0 1.2.188 1.342.238h.013l4.534-2.114.01-.01c.091-.235.199-.46.327-.676.312-.538.679-.907 1.089-1.099a2.19 2.19 0 01.924-.185zm0 .672c-.225 0-.45.034-.642.121-.679.32-1.076 1.419-1.076 1.419a.717.717 0 01-.322.353l-4.585 2.141a.752.752 0 01-.272.05.63.63 0 01-.209-.033s-.565-.209-1.136-.209c-.225 0-.45.03-.642.121-.679.32-1.076 1.419-1.076 1.419-.033.097-.006.158.06.158a.2.2 0 00.088-.024l.662-.309a.524.524 0 01.216-.044.536.536 0 01.248.054l.66.353a.373.373 0 01.174.377l-.155.732a.589.589 0 01-.289.363l-.662.31c-.128.064-.124.151.01.201 0 0 .565.209 1.136.209.225 0 .45-.03.642-.121.68-.32 1.076-1.419 1.076-1.419a.717.717 0 01.323-.353l4.584-2.144a.752.752 0 01.273-.05c.07 0 .14.01.208.033 0 0 .565.208 1.136.208.225 0 .45-.03.642-.12.68-.32 1.076-1.42 1.076-1.42.034-.097.007-.157-.06-.157a.2.2 0 00-.088.023l-.662.31a.524.524 0 01-.215.043.536.536 0 01-.249-.053l-.659-.353a.367.367 0 01-.175-.377l.155-.733a.589.589 0 01.289-.363l.662-.309c.128-.06.125-.148-.01-.198 0 0-.565-.209-1.136-.209z" fill="#5CB615" fill-rule="nonzero"/></svg>
